X: 14557
T: Gan Ainm
R: barndance
M: 4/4
K: Dmajor
A Bc|:dA Bc dA Bc|de fg a2b2|a2 gf ge fd|cd ec AA Bc|
dA Bc dA Bc|de fg a2b2|a2gf g2e2|1 d4 zA Bc:|2 d6d2||
|:eg fd eg fd|e2A4a2|b2a4g2|g2f4e2|
fa fd eg ec|de fg a2b2|a2 gf g2e2|1 d6d2:|2 d6z2||

